X: 208
T: A Good Life Coming
R: reel
M: 4/4
K: Gmajor
|:d2 ed BGAc|BAGB A~G3|DEGE GABd|edBD D~E3|
d2 ed BGAc|BAGB A~G3|DEGE GA z B|AGAB ~G4:|
d2ed ~e2 ge|~g3 a bafg|G g/a/ ~g2 eged|edBD D~E3|
d2ed ~e2 ge|~g2 ag ef ~g2|dedB DE z E-|EDBA ~G4:|

